packages/core/src/svgs/vr.svg

<svg width="24" height="24" viewBox="0 0 24 24" fill="none" xmlns="http://www.w3.org/2000/svg">
<g clip-path="url(#clip0_31_20518)">
<path d="M24 0H0V24H24V0Z" fill="#F0F3FA"/>
<path fill-rule="evenodd" clip-rule="evenodd" d="M11.0341 17.5791C11.0357 17.5799 11.0373 17.5808 11.0389 17.5817C11.0412 17.5816 11.0435 17.5814 11.0457 17.5813C11.1344 17.5982 11.2235 17.6126 11.3131 17.6243C11.8043 17.6885 12.253 17.6888 12.665 17.6397C12.4769 17.7763 12.2782 17.8998 12.0704 18.009C12.5618 18.1549 13.0835 18.2333 13.624 18.2333C14.159 18.2333 14.7044 18.1893 15.2315 18.0879C16.7559 17.1393 17.7714 15.485 17.7911 13.5986C17.6581 13.7756 17.5126 13.9432 17.3559 14.1002C17.4356 13.8386 17.489 13.5487 17.5222 13.2467C17.6039 13.126 17.6796 13.0011 17.749 12.8725C17.7107 12.5717 17.6469 12.2786 17.5598 11.9954C17.5448 11.5797 17.5068 11.1818 17.4606 10.8421C17.7071 11.2914 17.894 11.7762 18.0111 12.2867C18.1758 11.8299 18.2654 11.3388 18.2654 10.8273C18.2654 10.725 18.2618 10.6235 18.2548 10.5229C17.8466 9.82014 17.2742 9.21954 16.5883 8.77044L16.3961 8.37993L15.6467 7.83521C15.6264 7.79441 15.6055 7.75387 15.5841 7.71367C15.2378 7.21593 14.795 6.78697 14.2818 6.45221C14.1026 6.43126 13.9203 6.4205 13.7354 6.4205C13.4064 6.4205 13.0856 6.45461 12.7766 6.51937L12.3506 6.4031C12.7947 6.2561 13.268 6.17043 13.7598 6.15654C13.1174 5.84377 12.3923 5.6678 11.625 5.6678C10.5549 5.6678 9.56703 6.01006 8.7707 6.5882C9.38009 6.38536 10.0337 6.2753 10.7138 6.2753C10.8578 6.2753 11.0006 6.28023 11.142 6.28991C10.646 6.35921 10.182 6.50754 9.74631 6.71296C9.10962 6.82018 8.50953 7.03138 7.96529 7.32796C7.59059 7.76193 7.29599 8.26353 7.1036 8.81116C6.97906 8.9465 6.85739 9.08266 6.73838 9.21838C6.70186 9.26004 6.66693 9.30346 6.6335 9.34854C6.74682 8.7914 6.95626 8.2679 7.2443 7.79501C6.79242 8.1392 6.39595 8.54908 6.0701 9.00988C6.00479 9.32656 5.9705 9.65411 5.9705 9.98951C5.9705 10.2935 5.99866 10.591 6.05258 10.8798C6.05665 10.875 6.06076 10.8702 6.06488 10.8654C6.01383 11.1824 5.98803 11.5115 5.98066 11.8372C5.94972 11.7568 5.92075 11.6754 5.89383 11.5932C5.54506 12.1549 5.32135 12.7983 5.26032 13.487C5.55376 14.5911 6.19216 15.5602 7.05702 16.2791C6.73349 15.6994 6.50956 15.0594 6.40756 14.381C6.5471 14.5623 6.71335 14.7624 6.90316 14.9717C7.09649 15.6577 7.42563 16.2891 7.86072 16.8368C8.60913 17.2653 9.46829 17.5304 10.3864 17.5816C10.2254 17.4722 10.0706 17.355 9.92245 17.2304C10.2803 17.3846 10.6522 17.5052 11.0341 17.5791ZM18.1527 13.5427C18.1527 13.3847 18.1461 13.2282 18.1333 13.0735C18.4098 12.5795 18.5975 12.0316 18.6756 11.4502C18.8467 11.9576 18.9392 12.4997 18.9392 13.0628C18.9392 14.3745 18.9392 15.5967 17.914 16.7214C17.4459 17.2348 16.8419 17.5946 16.1726 17.834C17.3875 16.7821 18.1527 15.2493 18.1527 13.5427ZM19.2857 13.0628C19.2857 12.1955 19.0796 11.375 18.7124 10.6451C18.6221 8.47378 17.0122 6.68334 14.8893 6.25301C13.9085 5.30218 12.5555 4.71436 11.0614 4.71436C8.49033 4.71436 6.33715 6.455 5.77928 8.79101C5.1077 9.73361 4.71423 10.8779 4.71423 12.1115C4.71423 12.6753 4.79639 13.2204 4.94973 13.7362C4.94845 13.781 4.9478 13.8259 4.9478 13.871C4.9478 16.3296 6.88863 18.3472 9.36123 18.5531C10.2149 19.0197 11.2 19.2858 12.2489 19.2858C13.3928 19.2858 14.4608 18.9693 15.3653 18.4214C16.4257 18.2204 17.4084 17.7892 18.1491 16.9692C19.2857 15.7111 19.2857 14.4678 19.2857 13.0628ZM18.1198 9.71476C17.7445 8.31097 16.6755 7.17933 15.2902 6.6869C15.5501 7.00138 15.7736 7.34548 15.9547 7.7132C16.0466 7.85763 16.1311 8.00698 16.2076 8.1608C16.9578 8.53571 17.6107 9.06881 18.1198 9.71476ZM7.87559 6.96838C8.80568 5.98271 10.1411 5.36488 11.625 5.36488C12.4619 5.36488 13.2517 5.56147 13.9481 5.90973C13.1278 5.3594 12.1333 5.03716 11.0614 5.03716C8.93622 5.03716 7.11518 6.30393 6.35266 8.10358C6.79276 7.65058 7.30662 7.26611 7.87559 6.96838ZM13.624 18.5704C12.9191 18.5704 12.2444 18.4451 11.622 18.2162C11.1767 18.3951 10.698 18.5111 10.1974 18.553C10.8319 18.7991 11.5241 18.9344 12.2489 18.9344C12.9765 18.9344 13.6713 18.798 14.3079 18.5501C14.0805 18.5641 13.852 18.5704 13.624 18.5704ZM9.77866 18.2828C10.2847 18.2828 10.7714 18.2022 11.2259 18.0534C11.1478 18.0178 11.0705 17.9805 10.9943 17.9415C10.9014 17.9457 10.8078 17.9478 10.7138 17.9478C9.94983 17.9478 9.21925 17.8089 8.5472 17.5556C8.86653 17.8346 9.21938 18.078 9.59909 18.2794C9.65866 18.2817 9.71853 18.2828 9.77866 18.2828ZM11.6724 17.8737L11.6811 17.877L11.6972 17.8698L11.6724 17.8737ZM8.7497 18.1688C7.0001 17.774 5.63866 16.3942 5.3162 14.6626C5.82663 15.6827 6.63372 16.5365 7.62822 17.1178C7.95273 17.5142 8.33 17.8679 8.7497 18.1688ZM5.6387 9.98951C5.6387 10.414 5.69026 10.8269 5.78759 11.2224C5.48331 11.6555 5.25153 12.1406 5.10938 12.6613C5.09086 12.4805 5.08139 12.2971 5.08139 12.1115C5.08139 11.2534 5.28419 10.4413 5.64573 9.71814C5.64106 9.80801 5.6387 9.89848 5.6387 9.98951Z" fill="#FFAB01"/>
<path fill-rule="evenodd" clip-rule="evenodd" d="M11.8359 17.9687C15.0996 17.9687 17.7453 15.323 17.7453 12.0593C17.7453 8.79565 15.0996 6.1499 11.8359 6.1499C8.57226 6.1499 5.92651 8.79565 5.92651 12.0593C5.92651 15.323 8.57226 17.9687 11.8359 17.9687ZM11.8359 17.4376C14.8496 17.4376 17.2928 14.9945 17.2928 11.9807C17.2928 8.96703 14.8496 6.52387 11.8359 6.52387C8.82216 6.52387 6.37904 8.96703 6.37904 11.9807C6.37904 14.9945 8.82216 17.4376 11.8359 17.4376Z" fill="#FFE900"/>
<path fill-rule="evenodd" clip-rule="evenodd" d="M11.8358 18.3543C15.3122 18.3543 18.1304 15.5361 18.1304 12.0597C18.1304 8.58329 15.3122 5.76514 11.8358 5.76514C8.35942 5.76514 5.54126 8.58329 5.54126 12.0597C5.54126 15.5361 8.35942 18.3543 11.8358 18.3543ZM11.8358 17.9691C15.0995 17.9691 17.7452 15.3234 17.7452 12.0597C17.7452 8.79604 15.0995 6.15034 11.8358 6.15034C8.57216 6.15034 5.92642 8.79604 5.92642 12.0597C5.92642 15.3234 8.57216 17.9691 11.8358 17.9691Z" fill="#FFB701"/>
<path d="M9.83277 14.1428L7.28577 10.2856H8.06877C8.33517 10.2856 8.55177 10.5334 8.62677 10.656L9.83277 12.4592L11.0478 10.656C11.2926 10.3248 11.6024 10.2856 11.7588 10.2856H14.4858C15.1351 10.2856 15.8302 10.6698 15.8572 11.5714C15.8788 12.2926 15.3506 12.6402 15.2598 12.702L16.2858 14.1428H15.5028C15.258 14.1428 14.9988 13.9747 14.8998 13.8336L14.2428 12.8571H11.8578C11.9268 12.7559 12.1062 12.4702 12.2718 12.242C12.4374 12.0139 12.7128 11.9907 12.8298 11.9999H14.5719C14.8084 11.9999 15.0001 11.8082 15.0001 11.5718C15.0001 11.3353 14.8084 11.1436 14.5719 11.1436H12.1728C11.9136 11.1436 11.7228 11.3092 11.6598 11.392L9.83277 14.1428Z" fill="black"/>
</g>
<defs>
<clipPath id="clip0_31_20518">
<rect width="24" height="24" fill="white"/>
</clipPath>
</defs>
</svg>

<svg xmlns="http://www.w3.org/2000/svg" width="24" height="24" fill="none" viewBox="0 0 24 24"><g clip-path="url(#a)"><path fill="#F0F3FA" d="M24 0H0v24h24z"/><path fill="#FFAB01" fill-rule="evenodd" d="M11.034 17.58q.002 0 .005.002h.007q.133.024.267.042c.491.065.94.065 1.352.016q-.283.205-.595.369a5.5 5.5 0 0 0 1.554.224c.535 0 1.08-.044 1.608-.145 1.524-.949 2.54-2.603 2.56-4.49a5 5 0 0 1-.436.502 4.7 4.7 0 0 0 .166-.853 4 4 0 0 0 .227-.374 5 5 0 0 0-.19-.878 12 12 0 0 0-.098-1.153c.246.45.433.934.55 1.445a4.3 4.3 0 0 0 .244-1.764 5.26 5.26 0 0 0-1.667-1.753l-.192-.39-.75-.545-.062-.121a4.7 4.7 0 0 0-1.302-1.262 4.7 4.7 0 0 0-1.505.067l-.426-.116a5 5 0 0 1 1.409-.246 4.9 4.9 0 0 0-2.135-.49c-1.07 0-2.058.343-2.854.921a6.1 6.1 0 0 1 2.371-.298c-.496.07-.96.218-1.396.423a5.7 5.7 0 0 0-1.78.615c-.375.434-.67.936-.862 1.483a23 23 0 0 0-.366.407 2 2 0 0 0-.105.13c.114-.557.323-1.08.611-1.553A5.6 5.6 0 0 0 6.07 9.01a4.85 4.85 0 0 0-.017 1.87l.012-.015a7 7 0 0 0-.084.972q-.046-.12-.087-.244a4.3 4.3 0 0 0-.634 1.894 5.46 5.46 0 0 0 1.797 2.792 5.6 5.6 0 0 1-.65-1.898c.14.181.306.381.496.59.193.687.523 1.318.958 1.866a5.7 5.7 0 0 0 2.525.745 6 6 0 0 1-.464-.352c.358.155.73.275 1.112.35m7.119-4.037a6 6 0 0 0-.02-.47 4.6 4.6 0 0 0 .543-1.623c.17.508.263 1.05.263 1.613 0 1.311 0 2.534-1.025 3.658-.468.514-1.072.874-1.741 1.113 1.215-1.052 1.98-2.585 1.98-4.291m1.133-.48c0-.868-.206-1.688-.574-2.418-.09-2.171-1.7-3.962-3.823-4.392a5.48 5.48 0 0 0-3.828-1.539c-2.57 0-4.724 1.741-5.282 4.077a5.7 5.7 0 0 0-.83 4.945l-.001.135c0 2.459 1.94 4.476 4.413 4.682a6 6 0 0 0 2.888.733 6 6 0 0 0 3.116-.865c1.06-.2 2.043-.632 2.784-1.452 1.137-1.258 1.137-2.501 1.137-3.906M18.12 9.715c-.376-1.404-1.445-2.536-2.83-3.028q.392.473.665 1.026.138.217.253.448c.75.375 1.403.908 1.912 1.554M7.876 6.968a5.14 5.14 0 0 1 3.749-1.603c.837 0 1.627.196 2.323.545a5.17 5.17 0 0 0-2.887-.873c-2.125 0-3.946 1.267-4.708 3.067.44-.453.954-.838 1.523-1.136m5.748 11.602a5.8 5.8 0 0 1-2.002-.354 5 5 0 0 1-1.425.337 5.7 5.7 0 0 0 2.052.381c.727 0 1.422-.136 2.059-.384q-.341.02-.684.02m-3.845-.287c.506 0 .992-.08 1.447-.23a6 6 0 0 1-.232-.111 6.2 6.2 0 0 1-2.447-.386q.481.42 1.052.723.09.004.18.004m1.893-.41.01.004.015-.007zm-2.922.296c-1.75-.395-3.111-1.775-3.434-3.506a5.93 5.93 0 0 0 2.312 2.455c.325.396.702.75 1.122 1.05m-3.111-8.18q.001.639.149 1.233a4.6 4.6 0 0 0-.679 1.44 5.335 5.335 0 0 1 .536-2.943q-.006.134-.006.27" clip-rule="evenodd"/><path fill="#FFE900" fill-rule="evenodd" d="M11.836 17.969a5.91 5.91 0 1 0 0-11.819 5.91 5.91 0 0 0 0 11.819m0-.531a5.457 5.457 0 1 0 0-10.914 5.457 5.457 0 0 0 0 10.914" clip-rule="evenodd"/><path fill="#FFB701" fill-rule="evenodd" d="M11.836 18.354a6.295 6.295 0 1 0 0-12.589 6.295 6.295 0 0 0 0 12.59m0-.385a5.91 5.91 0 1 0 0-11.819 5.91 5.91 0 0 0 0 11.82" clip-rule="evenodd"/><path fill="#000" d="m9.833 14.143-2.547-3.857h.783c.266 0 .483.247.558.37l1.206 1.803 1.215-1.803a.86.86 0 0 1 .71-.37h2.728c.65 0 1.344.384 1.371 1.285.022.722-.506 1.07-.597 1.131l1.026 1.44h-.783a.83.83 0 0 1-.603-.308l-.657-.977h-2.385c.069-.101.248-.387.414-.615s.44-.251.558-.242h1.742a.428.428 0 1 0 0-.856h-2.4c-.258 0-.45.165-.512.248z"/></g><defs><clipPath id="a"><path fill="#fff" d="M0 0h24v24H0z"/></clipPath></defs></svg>
